X: 40417
T: Tom McElvogue's
R: slip jig
M: 9/8
K: Adorian
cAA cAA AGE|cAA cAA f2d|cAA cAA AGE|DED DEG AAB:|
|:cde gee fdd|cde gee f2d|cde gee fdd|edB cBA GAB:|

